storage/app/icons/phosphoricons/bold/spinner-ball-bold.svg

<svg xmlns="http://www.w3.org/2000/svg" fill="currentColor" viewBox="0 0 256 256"><path d="M128 20a108 108 0 1 0 108 108A108.12 108.12 0 0 0 128 20m83.65 100.47c-23.14 15.53-40.94 13.27-59.73 5.53 7.87-6 15.29-12.73 21.35-21.16A74.85 74.85 0 0 0 187 68.25a83.73 83.73 0 0 1 24.65 52.22M163.3 51.8c1.9 27.81-9 42.09-25.09 54.48-1.24-9.82-3.38-19.61-7.64-29.08A75 75 0 0 0 105.69 47a83.73 83.73 0 0 1 57.61 4.8m-83.61 7.55c25 12.25 31.93 28.8 34.6 48.94-9.12-3.82-18.66-6.87-29-7.91a75 75 0 0 0-38.59 6.46 84.2 84.2 0 0 1 32.99-47.49m-35.34 76.18C67.49 120 85.29 122.26 104.08 130c-7.87 6-15.29 12.73-21.35 21.16A74.85 74.85 0 0 0 69 187.75a83.73 83.73 0 0 1-24.65-52.22M92.7 204.2c-1.9-27.81 9-42.09 25.09-54.48 1.24 9.82 3.38 19.61 7.64 29.08a75 75 0 0 0 24.88 30.2 83.73 83.73 0 0 1-57.61-4.8m83.61-7.55c-25-12.25-31.93-28.8-34.6-48.94 9.12 3.82 18.66 6.87 29 7.91q3.75.38 7.47.38a76 76 0 0 0 31.12-6.85 84.2 84.2 0 0 1-32.99 47.5"/></svg>

<svg xmlns="http://www.w3.org/2000/svg" viewBox="0 0 256 256" fill="currentColor"><path d="M128,20A108,108,0,1,0,236,128,108.12,108.12,0,0,0,128,20Zm83.65,100.47C188.51,136,170.71,133.74,151.92,126c7.87-6,15.29-12.73,21.35-21.16A74.85,74.85,0,0,0,187,68.25,83.73,83.73,0,0,1,211.65,120.47ZM163.3,51.8c1.9,27.81-9,42.09-25.09,54.48-1.24-9.82-3.38-19.61-7.64-29.08A75,75,0,0,0,105.69,47,83.73,83.73,0,0,1,163.3,51.8ZM79.69,59.35c25,12.25,31.93,28.8,34.6,48.94-9.12-3.82-18.66-6.87-29-7.91a75,75,0,0,0-38.59,6.46A84.2,84.2,0,0,1,79.69,59.35ZM44.35,135.53C67.49,120,85.29,122.26,104.08,130c-7.87,6-15.29,12.73-21.35,21.16A74.85,74.85,0,0,0,69,187.75,83.73,83.73,0,0,1,44.35,135.53ZM92.7,204.2c-1.9-27.81,9-42.09,25.09-54.48,1.24,9.82,3.38,19.61,7.64,29.08A75,75,0,0,0,150.31,209,83.73,83.73,0,0,1,92.7,204.2Zm83.61-7.55c-25-12.25-31.93-28.8-34.6-48.94,9.12,3.82,18.66,6.87,29,7.91q3.75.38,7.47.38a76,76,0,0,0,31.12-6.85A84.19,84.19,0,0,1,176.31,196.65Z"/></svg>
